images/button-slider-left-md-noct.svg

<?xml version="1.0" encoding="UTF-8"?>
<svg width="40px" height="40px" viewBox="0 0 40 40" version="1.1" xmlns="http://www.w3.org/2000/svg" xmlns:xlink="http://www.w3.org/1999/xlink">
    <!-- Generator: Sketch 63.1 (92452) - https://sketch.com -->
    <title>button-slider-left-md-noct</title>
    <desc>Created with Sketch.</desc>
    <defs>
        <path d="M10.4142136,12 L15.7071068,6.70710678 C16.0976311,6.31658249 16.0976311,5.68341751 15.7071068,5.29289322 C15.3165825,4.90236893 14.6834175,4.90236893 14.2928932,5.29289322 L8.29289322,11.2928932 C7.90236893,11.6834175 7.90236893,12.3165825 8.29289322,12.7071068 L14.2928932,18.7071068 C14.6834175,19.0976311 15.3165825,19.0976311 15.7071068,18.7071068 C16.0976311,18.3165825 16.0976311,17.6834175 15.7071068,17.2928932 L10.4142136,12 Z" id="path-1"></path>
    </defs>
    <g id="GIFOS" stroke="none" stroke-width="1" fill="none" fill-rule="evenodd">
        <g id="16-UI-Kit-Modo-Nocturno" transform="translate(-176.000000, -2959.000000)">
            <g id="button-slider-left-md-noct" transform="translate(176.000000, 2959.000000)">
                <rect id="Rectangle-Copy-8" stroke="#FFFFFF" fill-rule="nonzero" x="0.5" y="0.5" width="39" height="39"></rect>
                <g id="chevron-left" transform="translate(8.000000, 8.000000)">
                    <mask id="mask-2" fill="white">
                        <use xlink:href="#path-1"></use>
                    </mask>
                    <use id="Shape" fill="#000000" fill-rule="nonzero" xlink:href="#path-1"></use>
                    <g id="Primary-color-Copy-2" mask="url(#mask-2)" fill="#FFFFFF" fill-rule="evenodd">
                        <rect id="Rectangle" x="0" y="0" width="24" height="24"></rect>
                    </g>
                </g>
            </g>
        </g>
    </g>
</svg>

<?xml version="1.0" encoding="utf-8"?>
<!-- Generator: Adobe Illustrator 21.1.0, SVG Export Plug-In . SVG Version: 6.00 Build 0)  -->
<svg version="1.1" id="Capa_1" xmlns="http://www.w3.org/2000/svg" xmlns:xlink="http://www.w3.org/1999/xlink" x="0px" y="0px"
	 viewBox="0 0 40 40" style="enable-background:new 0 0 40 40;" xml:space="preserve">
<style type="text/css">
	.st0{fill:none;stroke:#FFFFFF;}
	.st1{filter:url(#Adobe_OpacityMaskFilter);}
	.st2{fill:#FFFFFF;}
	.st3{mask:url(#mask-2);}
</style>
<g id="GIFOS">
	<g id="_x31_6-UI-Kit-Modo-Nocturno" transform="translate(-176.000000, -2959.000000)">
		<g id="button-slider-left-md-noct" transform="translate(176.000000, 2959.000000)">
			<rect id="Rectangle-Copy-8" x="0.5" y="0.5" class="st0" width="39" height="39"/>
			<g id="chevron-left" transform="translate(8.000000, 8.000000)">
				<g id="Shape">
					<path id="path-1_1_" d="M10.4,12l5.3-5.3c0.4-0.4,0.4-1,0-1.4c-0.4-0.4-1-0.4-1.4,0l-6,6c-0.4,0.4-0.4,1,0,1.4l6,6
						c0.4,0.4,1,0.4,1.4,0c0.4-0.4,0.4-1,0-1.4L10.4,12z"/>
				</g>
				<defs>
					<filter id="Adobe_OpacityMaskFilter" filterUnits="userSpaceOnUse" x="0" y="0" width="24" height="24">
						<feColorMatrix  type="matrix" values="1 0 0 0 0  0 1 0 0 0  0 0 1 0 0  0 0 0 1 0"/>
					</filter>
				</defs>
				<mask maskUnits="userSpaceOnUse" x="0" y="0" width="24" height="24" id="mask-2">
					<g class="st1">
						<path id="path-1" class="st2" d="M10.4,12l5.3-5.3c0.4-0.4,0.4-1,0-1.4c-0.4-0.4-1-0.4-1.4,0l-6,6c-0.4,0.4-0.4,1,0,1.4l6,6
							c0.4,0.4,1,0.4,1.4,0c0.4-0.4,0.4-1,0-1.4L10.4,12z"/>
					</g>
				</mask>
				<g id="Primary-color-Copy-2" class="st3">
					<rect id="Rectangle" y="0" class="st2" width="24" height="24"/>
				</g>
			</g>
		</g>
	</g>
</g>
</svg>
